svgs/sharp-light/arrow-up-short-wide.svg

<svg xmlns="http://www.w3.org/2000/svg" viewBox="0 0 576 512"><!--! Font Awesome Pro 6.6.0 by @fontawesome - https://fontawesome.com License - https://fontawesome.com/license (Commercial License) Copyright 2024 Fonticons, Inc. --><path d="M139.3 44.7L128 33.4 116.7 44.7l-88 88L17.4 144 40 166.6l11.3-11.3L112 94.6 112 464l0 16 32 0 0-16 0-369.4 60.7 60.7L216 166.6 238.6 144l-11.3-11.3-88-88zM304 48l-16 0 0 32 16 0 64 0 16 0 0-32-16 0-64 0zm0 128l-16 0 0 32 16 0 128 0 16 0 0-32-16 0-128 0zm0 128l-16 0 0 32 16 0 192 0 16 0 0-32-16 0-192 0zm0 128l-16 0 0 32 16 0 256 0 16 0 0-32-16 0-256 0z"/></svg>

<svg xmlns="http://www.w3.org/2000/svg" viewBox="0 0 576 512"><!--! Font Awesome Pro 6.4.0 by @fontawesome - https://fontawesome.com License - https://fontawesome.com/license (Commercial License) Copyright 2023 Fonticons, Inc. --><path d="M139.3 44.7L128 33.4 116.7 44.7l-88 88L17.4 144 40 166.6l11.3-11.3L112 94.6V464v16h32V464 94.6l60.7 60.7L216 166.6 238.6 144l-11.3-11.3-88-88zM304 48H288V80h16 64 16V48H368 304zm0 128H288v32h16H432h16V176H432 304zm0 128H288v32h16H496h16V304H496 304zm0 128H288v32h16H560h16V432H560 304z"/></svg>
